X:80
T: Going to the Races
T: Ag Dul Chuig Na R\'asa\'i
S: B.Breathnach: "Ceol Rince na hEireann" II/20
Z: B.Black
L: 1/8
M: 6/8
R: jig
K: G
A|BAB GFE|DB,D G2A|BAB GBB|AGB c2c|
BAB GFE|DB,D G2A|BAB cAF|AGF G2 :|
c|BGB ddc/d/|BGB d2c|BGB ddc/d/|ecA A2c|
BGB def|gfe d2c|BAB ABB|AGE c2 :|

